images/close.svg

<svg fill="none" height="84" viewBox="0 0 84 84" width="84" xmlns="http://www.w3.org/2000/svg" xmlns:xlink="http://www.w3.org/1999/xlink"><mask id="a" height="26" maskUnits="userSpaceOnUse" width="26" x="29" y="29"><path d="m54.2834 51.7167c.7334.7333.7334 1.8333 0 2.5666-.3666.3667-.7333.55-1.2833.55s-.9167-.1833-1.2833-.55l-9.7167-9.7166-9.7167 9.7166c-.3667.3667-.7333.55-1.2833.55s-.9167-.1833-1.2834-.55c-.7333-.7333-.7333-1.8333 0-2.5666l9.7167-9.7167-9.7167-9.7167c-.7333-.7333-.7333-1.8333 0-2.5666.7334-.7334 1.8334-.7334 2.5667 0l9.7167 9.7166 9.7167-9.7166c.7333-.7334 1.8333-.7334 2.5666 0 .7334.7333.7334 1.8333 0 2.5666l-9.7167 9.7167z" fill="#fff"/></mask><circle cx="42" cy="42" r="41.5" stroke="#fff"/><path d="m54.2834 51.7167c.7334.7333.7334 1.8333 0 2.5666-.3666.3667-.7333.55-1.2833.55s-.9167-.1833-1.2833-.55l-9.7167-9.7166-9.7167 9.7166c-.3667.3667-.7333.55-1.2833.55s-.9167-.1833-1.2834-.55c-.7333-.7333-.7333-1.8333 0-2.5666l9.7167-9.7167-9.7167-9.7167c-.7333-.7333-.7333-1.8333 0-2.5666.7334-.7334 1.8334-.7334 2.5667 0l9.7167 9.7166 9.7167-9.7166c.7333-.7334 1.8333-.7334 2.5666 0 .7334.7333.7334 1.8333 0 2.5666l-9.7167 9.7167z" fill="#fff"/><g mask="url(#a)"><path d="m20 20h44v44h-44z" fill="#fff"/></g></svg>

<svg width="84" height="84" viewBox="0 0 84 84" fill="none" xmlns="http://www.w3.org/2000/svg">
<circle cx="42" cy="42" r="41.5" stroke="white"/>
<path d="M54.2834 51.7167C55.0168 52.45 55.0168 53.55 54.2834 54.2833C53.9168 54.65 53.5501 54.8333 53.0001 54.8333C52.4501 54.8333 52.0834 54.65 51.7168 54.2833L42.0001 44.5667L32.2834 54.2833C31.9167 54.65 31.5501 54.8333 31.0001 54.8333C30.4501 54.8333 30.0834 54.65 29.7167 54.2833C28.9834 53.55 28.9834 52.45 29.7167 51.7167L39.4334 42L29.7167 32.2833C28.9834 31.55 28.9834 30.45 29.7167 29.7167C30.4501 28.9833 31.5501 28.9833 32.2834 29.7167L42.0001 39.4333L51.7168 29.7167C52.4501 28.9833 53.5501 28.9833 54.2834 29.7167C55.0168 30.45 55.0168 31.55 54.2834 32.2833L44.5667 42L54.2834 51.7167Z" fill="white"/>
<mask id="mask0_204_791" style="mask-type:alpha" maskUnits="userSpaceOnUse" x="29" y="29" width="26" height="26">
<path d="M54.2834 51.7167C55.0168 52.45 55.0168 53.55 54.2834 54.2833C53.9168 54.65 53.5501 54.8333 53.0001 54.8333C52.4501 54.8333 52.0834 54.65 51.7168 54.2833L42.0001 44.5667L32.2834 54.2833C31.9167 54.65 31.5501 54.8333 31.0001 54.8333C30.4501 54.8333 30.0834 54.65 29.7167 54.2833C28.9834 53.55 28.9834 52.45 29.7167 51.7167L39.4334 42L29.7167 32.2833C28.9834 31.55 28.9834 30.45 29.7167 29.7167C30.4501 28.9833 31.5501 28.9833 32.2834 29.7167L42.0001 39.4333L51.7168 29.7167C52.4501 28.9833 53.5501 28.9833 54.2834 29.7167C55.0168 30.45 55.0168 31.55 54.2834 32.2833L44.5667 42L54.2834 51.7167Z" fill="white"/>
</mask>
<g mask="url(#mask0_204_791)">
<rect x="20" y="20" width="44" height="44" fill="white"/>
</g>
</svg>
